icons/bit-coin-line.svg

<svg xmlns="http://www.w3.org/2000/svg" width="24" height="24" fill="none"><g clip-path="url(#a)"><g><path fill="#121212" d="M12 22C6.477 22 2 17.523 2 12C2 6.477 6.477 2 12 2C17.523 2 22 6.477 22 12C22 17.523 17.523 22 12 22ZM12 20C14.1217 20 16.1566 19.1571 17.6569 17.6569C19.1571 16.1566 20 14.1217 20 12C20 9.87827 19.1571 7.84344 17.6569 6.34315C16.1566 4.84285 14.1217 4 12 4C9.87827 4 7.84344 4.84285 6.34315 6.34315C4.84285 7.84344 4 9.87827 4 12C4 14.1217 4.84285 16.1566 6.34315 17.6569C7.84344 19.1571 9.87827 20 12 20ZM11 16H8V8H11V6H13V8H14C14.4643 8 14.9194 8.12929 15.3143 8.37337C15.7093 8.61746 16.0284 8.9667 16.2361 9.38197C16.4437 9.79723 16.5316 10.2621 16.4899 10.7245C16.4482 11.1869 16.2786 11.6286 16 12C16.2786 12.3714 16.4482 12.8131 16.4899 13.2755C16.5316 13.7379 16.4437 14.2028 16.2361 14.618C16.0284 15.0333 15.7093 15.3825 15.3143 15.6266C14.9194 15.8707 14.4643 16 14 16H13V18H11V16ZM10 13V14H14C14.1326 14 14.2598 13.9473 14.3536 13.8536C14.4473 13.7598 14.5 13.6326 14.5 13.5C14.5 13.3674 14.4473 13.2402 14.3536 13.1464C14.2598 13.0527 14.1326 13 14 13H10ZM10 10V11H14C14.1326 11 14.2598 10.9473 14.3536 10.8536C14.4473 10.7598 14.5 10.6326 14.5 10.5C14.5 10.3674 14.4473 10.2402 14.3536 10.1464C14.2598 10.0527 14.1326 10 14 10H10Z"/></g></g><defs><clipPath id="a"><rect width="24" height="24" fill="white"/></clipPath></defs></svg>

<svg width="24" height="24" fill="none" xmlns="http://www.w3.org/2000/svg"><g clip-path="url(#a)"><path d="M12 22C6.477 22 2 17.523 2 12S6.477 2 12 2s10 4.477 10 10-4.477 10-10 10Zm0-2a8 8 0 1 0 0-16.001A8 8 0 0 0 12 20Zm-1-4H8V8h3V6h2v2h1a2.5 2.5 0 0 1 2 4 2.5 2.5 0 0 1-2 4h-1v2h-2v-2Zm-1-3v1h4a.5.5 0 0 0 0-1h-4Zm0-3v1h4a.5.5 0 0 0 0-1h-4Z" /></g><defs><clipPath id="a"><path fill="#fff" d="M0 0h24v24H0z"/></clipPath></defs></svg>
